assets/images/members/indeed-id/indeed-id.svg

<svg viewBox="0 0 189 48" fill="none" xmlns="http://www.w3.org/2000/svg">
<path d="M164.295 1.70728C151.616 1.70728 141.342 11.6865 141.342 23.9999C141.342 36.3133 151.616 46.2926 164.295 46.2926C176.971 46.2926 187.242 36.3133 187.242 23.9999C187.242 11.6865 176.971 1.70728 164.295 1.70728Z" fill="white"/>
<path d="M164.295 0C150.646 0 139.584 10.7424 139.584 24C139.584 37.2576 150.644 48 164.295 48C177.941 48 189 37.2576 189 24C189 10.7424 177.941 0 164.295 0ZM154.521 18.3114V32.104H151.875V17.4932C151.907 16.7116 152.558 16.0874 153.368 16.0691H154.521V18.3114ZM168.264 32.104H162.715C161.989 32.0778 161.39 31.5664 161.26 30.8871V22.9667H163.906V29.8931H167.926C173.391 29.8931 175.1 27.0423 175.1 24.2229C175.1 21.6737 173.737 18.2826 167.816 18.2826L161.263 18.2905V18.2485V17.6348V17.4932C161.298 16.7116 161.946 16.0874 162.756 16.0691H167.789C175.314 16.0691 177.717 20.1919 177.717 23.9239C177.711 27.3465 176.132 32.104 168.264 32.104Z" fill="#018F26"/>
<path d="M85.6577 17.4932V18.28H102.117V16.0376H87.1562C86.3354 16.056 85.6766 16.6959 85.6577 17.4932Z" fill="#111319"/>
<path d="M13.4246 24.2307C13.3274 23.5199 12.7145 22.9718 11.9639 22.9456H10.8623V32.0934H13.4246V24.2307V24.2307Z" fill="#111319"/>
<path d="M24.4271 31.6529V31.6451C24.6836 31.9021 25.04 32.0673 25.4342 32.0936H25.8716C26.687 32.0752 27.3431 31.4431 27.3701 30.6511V16.0376H24.8348V28.2356L13.4246 16.0376H10.8623V17.0421L24.4271 31.6529Z" fill="#111319"/>
<path d="M42.3604 16.0376H38.4454H38.035H37.306C36.5041 16.0533 35.8615 16.6723 35.8291 17.446V18.2537H42.3901C48.3166 18.2537 49.6801 21.6501 49.6801 24.202C49.6801 27.0239 47.971 29.8774 42.5008 29.8774H38.4751V22.9431H35.8291V30.6301C35.8426 31.4248 36.4933 32.0647 37.3087 32.0936H42.8383C50.7169 32.0936 52.2991 27.3308 52.2991 23.903C52.2991 20.1683 49.8934 16.0376 42.3604 16.0376Z" fill="#111319"/>
<path d="M0 17.4617V32.0936H2.6487V16.0376H1.4931C0.6831 16.056 0.0324 16.6802 0 17.4617Z" fill="#111319"/>
<path d="M87.1587 22.9431C86.3379 22.9589 85.6764 23.5988 85.6602 24.3987V29.5234V30.0741V30.6406C85.6791 31.4274 86.3217 32.0595 87.1263 32.091H102.119V29.8486H88.3062V25.1855L88.3089 25.1881H102.122V22.9457H87.1587V22.9431Z" fill="#111319"/>
<path d="M63.3989 29.8512H77.2094V32.0936H62.246C61.436 32.0752 60.7853 31.451 60.7529 30.6695V24.3961C60.7718 23.6093 61.4144 22.9772 62.219 22.9431H77.2094V25.1881H63.3881L63.3989 29.8512Z" fill="#111319"/>
<path d="M60.75 18.28V17.4879C60.7689 16.7011 61.4115 16.0691 62.2161 16.0376H77.2065V18.28H60.75Z" fill="#111319"/>
<path d="M117.088 32.0936H112.088C111.256 32.0752 110.587 31.4195 110.587 30.6065L110.557 22.9457H113.206V29.8774H117.121C123.045 29.8774 124.411 26.481 124.411 23.9292C124.411 21.1072 122.702 18.2537 117.232 18.2537L110.557 18.2564V17.4906C110.576 16.7038 111.219 16.0717 112.023 16.0376H117.569C125.448 16.0376 127.03 20.8004 127.03 24.2282C127.03 27.9655 124.621 32.0936 117.088 32.0936Z" fill="#111319"/>
</svg>

<svg xmlns="http://www.w3.org/2000/svg" fill="none" viewBox="0 0 189 48"><path fill="#fff" d="M164.295 1.707c-12.679 0-22.953 9.98-22.953 22.293s10.274 22.293 22.953 22.293c12.676 0 22.947-9.98 22.947-22.293S176.971 1.707 164.295 1.707"/><path fill="#018f26" d="M164.295 0c-13.649 0-24.711 10.742-24.711 24s11.06 24 24.711 24C177.941 48 189 37.258 189 24S177.941 0 164.295 0m-9.774 18.311v13.793h-2.646v-14.61c.032-.782.683-1.407 1.493-1.425h1.153zm13.743 13.793h-5.549c-.726-.026-1.325-.538-1.455-1.217v-7.92h2.646v6.926h4.02c5.465 0 7.174-2.85 7.174-5.67 0-2.55-1.363-5.94-7.284-5.94l-6.553.008v-.798c.035-.781.683-1.406 1.493-1.424h5.033c7.525 0 9.928 4.123 9.928 7.855-.006 3.422-1.585 8.18-9.453 8.18"/><path fill="#111319" d="M85.658 17.493v.787h16.459v-2.242h-14.96c-.822.018-1.48.658-1.5 1.455M13.425 24.23c-.098-.71-.71-1.258-1.461-1.284h-1.102v9.147h2.563zM24.427 31.653v-.008c.257.257.613.422 1.007.449h.438c.815-.019 1.471-.65 1.498-1.443V16.038h-2.535v12.198l-11.41-12.198h-2.563v1.004zM42.36 16.038h-5.054c-.802.015-1.444.634-1.477 1.408v.808h6.561c5.927 0 7.29 3.396 7.29 5.948 0 2.822-1.709 5.675-7.18 5.675h-4.025v-6.934H35.83v7.687c.014.795.664 1.435 1.48 1.464h5.53c7.878 0 9.46-4.763 9.46-8.191 0-3.735-2.406-7.865-9.939-7.865M0 17.462v14.632h2.649V16.038H1.493c-.81.018-1.46.642-1.493 1.424M87.159 22.943c-.821.016-1.483.656-1.499 1.456v6.242c.02.786.662 1.419 1.466 1.45h14.993v-2.242H88.306v-4.663l.003.002h13.813v-2.242H87.159zM63.399 29.851h13.81v2.243H62.246c-.81-.019-1.46-.643-1.493-1.425v-6.273c.019-.787.661-1.419 1.466-1.453h14.99v2.245H63.39zM60.75 18.28v-.792c.019-.787.661-1.419 1.466-1.45h14.99v2.242zM117.088 32.094h-5c-.832-.019-1.501-.675-1.501-1.488l-.03-7.66h2.649v6.931h3.915c5.924 0 7.29-3.396 7.29-5.948 0-2.822-1.709-5.675-7.179-5.675l-6.675.002v-.765c.019-.787.662-1.42 1.466-1.453h5.546c7.879 0 9.461 4.762 9.461 8.19 0 3.737-2.409 7.866-9.942 7.866"/></svg>
